X:1
T:[ID 2-126a]
T:[ID 2-126a]
T:Bezeichnung standardisiert: Menuet [mit Trio] Menuet Con Trio nro 2.
T:Urheber unbekannt Erstbeleg: 1767 (Datum in der schriftlichen Quelle) Datum in der hier transkribierten schriftlichen Quelle: 1792
C:Urheber unbekannt
C:Erstbeleg: 1767 (Datum in der schriftlichen Quelle)
C:Datum in der hier transkribierten schriftlichen Quelle: 1792
L:1/8
M:3/4
K:D
V:1 treble 
V:1
 D2 F2 A2 | d4 (3efg | f2 d2 c2 | d4 (3efg | f2 d2 f2 | g2 e2 fg | a2 c2 df | e6 :: A2 c2 ce | %9
 A2 d2 df | A2 e2 eg | f4 e2 | d2 f2 a2 | d'2 dc d2 | fgfedc | d6 :|[M:3/4]"^Trio" !fermata!d4 Ad | %17
 f4 df | a4 fa | d'2 d2 d2 | A2 c2 d2 | A2 c2 d2 | a2 c2 df | A6 :: a2 a^g a2 | A2 A2 A2 | %26
 a2 gfed | A2 A2 A2 | d4 Ad | f4 df | a4 fa | d'2 dc d2 | egfedc | d6 :| %34

